public/assets/icons/cart.svg

<svg width="24" height="24" viewBox="0 0 24 24" fill="none" xmlns="http://www.w3.org/2000/svg">
<path d="M9 6L9 7C9 8.65685 10.3431 10 12 10C13.6569 10 15 8.65685 15 7V6" stroke="#131118" stroke-width="1.5" stroke-linecap="round" stroke-linejoin="round"/>
<path d="M15.6116 3H8.3886C6.43325 3 4.76449 4.41365 4.44303 6.3424L2.77636 16.3424C2.37001 18.7805 4.25018 21 6.72194 21H17.2783C19.75 21 21.6302 18.7805 21.2238 16.3424L19.5572 6.3424C19.2357 4.41365 17.5669 3 15.6116 3Z" stroke="#131118" stroke-width="1.5" stroke-linejoin="round"/>
</svg>

<?xml version="1.0" encoding="utf-8"?>
<!-- Generator: Adobe Illustrator 28.1.0, SVG Export Plug-In . SVG Version: 6.00 Build 0)  -->
<svg version="1.1" id="Layer_1" xmlns="http://www.w3.org/2000/svg" xmlns:xlink="http://www.w3.org/1999/xlink" x="0px" y="0px"
	 viewBox="0 0 24 24" style="enable-background:new 0 0 24 24;" xml:space="preserve">
<style type="text/css">
	.st0{fill:none;stroke:#FFFFFF;stroke-width:1.5;stroke-linecap:round;stroke-linejoin:round;}
	.st1{fill:none;stroke:#FFFFFF;stroke-width:1.5;stroke-linejoin:round;}
</style>
<path class="st0" d="M9,6v1c0,1.7,1.3,3,3,3s3-1.3,3-3V6"/>
<path class="st1" d="M15.6,3H8.4c-2,0-3.6,1.4-3.9,3.3l-1.7,10C2.4,18.8,4.3,21,6.7,21h10.6c2.5,0,4.4-2.2,3.9-4.7l-1.7-10
	C19.2,4.4,17.6,3,15.6,3z"/>
</svg>
